X:1
T:Title
%%score { ( 1 3 4 ) | ( 2 5 ) }
L:1/8
M:4/4
K:C
V:1 treble nm="Grand Piano"
V:3 treble 
V:4 treble 
V:2 bass 
V:5 bass 
V:1
 z4 z2[Q:1/4=100] [EG]2 | [Ec]2 [Ec]2 [Ec]>[EB] [EA]>[Ec] | B2 B4 F2 | B2 A2 G>A G>A | %4
[M:3/4] [EG]6 |[M:1/4] [EG]2 |[M:4/4] [Ec]2 [Ec]2 [Ec]>[EB] [EA]>[Ec] | B2 B4 _B>=B | %8
 [D^Fd]2 [EFc]>[DFB] [CFA]2 [Fc]2 |[M:3/4] d6 |[M:1/4] (3GAB |[M:4/4] c6 z2 | [FB]2 [DF]2 z2 z F | %13
 [FB]2 [FA]2 [Fc]2 [FB]2 | [EA]2 [CE]2 E3 C | E2 C2 F2 D2 | G2 E2 F>G A>B | %17
 c2- [^Fc-]>[Fc-] [Fc]2 [FB]>[FA] |[M:3/4] B2 c2 d2 |[M:1/4] (3GAB | %20
[M:4/4] c2- [Ec-]>[Ec-] [Ec]2 [Ed]>[Ec] | [FB]2 [DF]2 z2 z F | [FB]2 [FA]2 [Fc]2 [FB]2 | %23
 [EA]2 [CE]2 E3 C | E2 C2 F2 D2 | G2 E2 F>G A>A | G2 B>A G d3 |[M:3/4] [Ec]6 |] %28
V:2
 z4 z2 [C,C]2 | [C,G,]2 [C,G,]2 [C,G,]>[C,G,] [C,C]>[C,C] | [G,DF]2 [G,DF]4 [G,B,]2 | %3
 [G,DF]2 [G,CF]2 [G,B,D]>[G,B,D] [G,DF]>[G,DF] |[M:3/4][K:bass] [C,C]6 |[M:1/4] [C,C]2 | %6
[M:4/4] [C,G,]2 [C,G,]2 [C,G,]>[C,G,] [C,C]>[C,C] | [G,DF]2 [G,DF]4 [G,^CF]>[G,DF] | %8
 D,2 D,>D, D,2 [D,A,]2 |[M:3/4][K:treble] [G,B,F]6 |[M:1/4] (3:2:2[G,F]2 [G,F] | %11
[M:4/4][K:bass] [C,G,]2 [G,,G,]2 [C,G,]2 [G,,G,]>[G,,G,] | [D,G,]2 [G,,G,]2 [D,G,]2 z D | %13
 [D,G,]2 [G,,G,]2 [D,G,]2 [G,,G,]2 | [C,G,]2 [G,,G,]2 [C,G,C]3 [C,E,] | %15
 [C,G,C]2 [E,G,]2 [D,G,B,]2 [F,G,B,]2 | [E,G,C]2 [C,G,C]2 [F,A,C]>[F,B,F] [F,CF]>[F,B,F] | %17
 [D,A,]2 [D,D]>[D,D] [D,D]2 [D,D]>[D,C] |[M:3/4][K:treble] [G,DG]2 [A,D^F]2 [B,D=F]2 | %19
[M:1/4] (3:2:2[G,F]2 [G,F] |[M:4/4][K:bass] [C,G,]2 [G,,G,]2 [C,G,]2 [G,,G,]>[G,,G,] | %21
 [D,G,]2 [G,,G,]2 [D,G,]2 z D | [D,G,]2 [G,,G,]2 [D,G,]2 [G,,G,]2 | %23
 [C,G,]2 [G,,G,]2 [C,G,C]3 [C,E,] | [C,G,C]2 [E,G,]2 [D,G,B,]2 [F,G,B,]2 | %25
 [E,G,C]2 [C,G,C]2 [F,A,C]>[F,B,F] [^F,C_E]>[F,CE] | [G,CE]2 [G,DF]>[G,CF] [G,B,F] [G,B,F]3 | %27
[M:3/4][K:bass] [C,G,C]6 |] %28
V:3
 x8 | x8 | x8 | x8 |[M:3/4] x6 |[M:1/4] x2 |[M:4/4] x8 | x8 | x8 |[M:3/4] x6 |[M:1/4] x2 | %11
[M:4/4] E2 E>E E2 [Ed]>[Ec] | z4 [DF]4 | x8 | x8 | x8 | x8 | ^F2 z2 z4 |[M:3/4] x6 |[M:1/4] x2 | %20
[M:4/4] E2 z2 z4 | z4 [DF]4 | x8 | x8 | x8 | x8 | x8 |[M:3/4] x6 |] %28
V:4
 x8 | x8 | x8 | x8 |[M:3/4] x6 |[M:1/4] x2 |[M:4/4] x8 | x8 | x8 |[M:3/4] x6 |[M:1/4] x2 | %11
[M:4/4] x8 | z4 z2 G,2 | x8 | x8 | x8 | x8 | x8 |[M:3/4] x6 |[M:1/4] x2 |[M:4/4] x8 | z4 z2 G,2 | %22
 x8 | x8 | x8 | x8 | x8 |[M:3/4] x6 |] %28
V:5
 x8 | x8 | x8 | x8 |[M:3/4][K:bass] x6 |[M:1/4] x2 |[M:4/4] x8 | x8 | x8 |[M:3/4][K:treble] x6 | %10
[M:1/4] x2 |[M:4/4][K:bass] x8 | z4 z2 G,,2 | x8 | x8 | x8 | x8 | x8 |[M:3/4][K:treble] x6 | %19
[M:1/4] x2 |[M:4/4][K:bass] x8 | z4 z2 G,,2 | x8 | x8 | x8 | x8 | x8 |[M:3/4][K:bass] x6 |] %28

